projects/flag-game/flags/Netherlands.svg

<svg viewBox="0 0 1000 667" xmlns="http://www.w3.org/2000/svg" xmlns:xlink="http://www.w3.org/1999/xlink"><clipPath id="a"><path d="m0 0h1000v666.71875h-1000zm0 0"/></clipPath><g clip-path="url(#a)"><path d="m0 666.667969v-666.667969h1000v666.667969zm0 0" fill="#21468b" fill-rule="evenodd"/></g><g fill-rule="evenodd"><path d="m0 0h1000v444.445312h-1000zm0 0" fill="#fff"/><path d="m0 0h1000v222.222656h-1000zm0 0" fill="#ae1c28"/></g></svg>

<?xml version="1.0" encoding="UTF-8"?>
<svg xmlns="http://www.w3.org/2000/svg" xmlns:xlink="http://www.w3.org/1999/xlink" viewBox="0 0 1000 667" version="1.1">
<defs>
<clipPath id="clip1">
  <path d="M 0 0 L 1000 0 L 1000 666.71875 L 0 666.71875 Z M 0 0 "/>
</clipPath>
</defs>
<g id="surface845">
<g clip-path="url(#clip1)" clip-rule="nonzero">
<path style=" stroke:none;fill-rule:evenodd;fill:rgb(12.940979%,27.450562%,54.508972%);fill-opacity:1;" d="M 0 666.667969 L 0 0 L 1000 0 L 1000 666.667969 Z M 0 666.667969 "/>
</g>
<path style=" stroke:none;fill-rule:evenodd;fill:rgb(99.998474%,99.998474%,99.998474%);fill-opacity:1;" d="M 0 0 L 1000 0 L 1000 444.445312 L 0 444.445312 Z M 0 0 "/>
<path style=" stroke:none;fill-rule:evenodd;fill:rgb(68.234253%,10.980225%,15.686035%);fill-opacity:1;" d="M 0 0 L 1000 0 L 1000 222.222656 L 0 222.222656 Z M 0 0 "/>
</g>
</svg>
